humanity-icon-theme/Humanity-Dark/status/24/network-transmit-receive.svg

<?xml version="1.0" encoding="UTF-8" standalone="no"?>
<!-- Created with Inkscape (http://www.inkscape.org/) -->

<svg
   xmlns:svg="http://www.w3.org/2000/svg"
   xmlns="http://www.w3.org/2000/svg"
   version="1.1"
   width="24"
   height="24"
   id="svg3745">
  <defs
     id="defs3747" />
  <g
     transform="translate(0,8)"
     id="layer1">
    <path
       d="M 13.81691,7.839897 C 12.248478,9.395634 9.7158392,9.385342 8.1601026,7.81691 6.6043661,6.248478 6.6146578,3.715839 8.1830898,2.160103 8.2425382,2.101135 8.3038234,2.04405 8.366855,1.9889292 L 11,5 13.81691,7.839897 z M 9,8 8,7 3,12 4,13 9,8 z"
       id="path3765"
       style="fill:#969696;fill-opacity:1;stroke:none" />
    <path
       d="m 9.18309,1.160103 c 1.568432,-1.555737 4.101071,-1.545445 5.656807,0.022987 1.555737,1.568432 1.545445,4.101071 -0.02299,5.656807 -0.05945,0.058968 -0.120733,0.116053 -0.183765,0.1711738 L 12,4 9.18309,1.160103 z M 20,-3 l -1,-1 -5,5 1,1 5,-5 z"
       id="path3767"
       style="fill:#969696;fill-opacity:1;stroke:none" />
  </g>
</svg>

<?xml version="1.0" encoding="UTF-8" standalone="no"?>
<!-- Created with Inkscape (http://www.inkscape.org/) -->
<svg id="svg3745" xmlns="http://www.w3.org/2000/svg" height="24" width="24" version="1.1">
 <g id="layer1" transform="translate(0,8)">
  <path id="path3765" style="fill:#969696" d="m13.817 7.8399c-1.569 1.5557-4.1012 1.5454-5.6569-0.023s-1.5454-4.1011 0.023-5.6568c0.0594-0.059 0.1207-0.1161 0.1838-0.1712l2.6331 3.0111 2.817 2.8399zm-4.817 0.1601-1-1-5 5 1 1 5-5z"/>
  <path id="path3767" style="fill:#969696" d="m9.1831 1.1601c1.5684-1.5557 4.1011-1.5454 5.6568 0.022987s1.5454 4.1011-0.02299 5.6568c-0.05945 0.058968-0.12073 0.11605-0.18376 0.17117l-2.633-3.0111-2.8169-2.8399zm10.817-4.1601l-1-1-5 5 1 1 5-5z"/>
 </g>
</svg>
